src/assets/images/yellowWave.svg

<svg viewBox="0 0 800 68" fill="none" xmlns="http://www.w3.org/2000/svg">
  <path fill-rule="evenodd" clip-rule="evenodd" d="M0 11.654v48.0138s83.4791-5.2756 139.806-7.194c7.785-.2652 14.917-.5277 21.661-.776 27.57-1.0149 48.643-1.7907 81.251-1.5261 47.903.3887 77.67 1.9184 117.476 5.3236 12.737 1.0895 23.188 2.2478 33.705 3.4136 22.354 2.4775 45.012 4.9888 90.567 6.9457 62.801 2.6976 82.903 2.3687 130.001 1.5981 3.141-.0514 6.403-.1048 9.805-.1593C696.766 66.1308 800 57.9412 800 57.9412V7.55509S679.274 13.7626 601.489 14.933c-98.826 1.4871-154.611.3909-253.102-3.279-32.459-1.2095-58.846-3.63408-84.16-5.95999C227.845 2.35113 193.681-.787956 146.898.17713 88.586 1.38007 0 11.654 0 11.654Z" fill="#F2CC8F"/>
</svg>

<svg width="100%" height="" viewBox="0 0 800 68" fill="none"  xmlns="http://www.w3.org/2000/svg">
<path fill-rule="evenodd" clip-rule="evenodd" d="M0 11.654V26V59.6678C0 59.6678 83.4791 54.3922 139.806 52.4738C147.591 52.2086 154.723 51.9461 161.467 51.6978C189.037 50.6829 210.11 49.9071 242.718 50.1717C290.621 50.5604 320.388 52.0901 360.194 55.4953C372.931 56.5848 383.382 57.7431 393.899 58.9089C416.253 61.3864 438.911 63.8977 484.466 65.8546C547.267 68.5522 567.369 68.2233 614.467 67.4527C617.608 67.4013 620.87 67.3479 624.272 67.2934C696.766 66.1308 800 57.9412 800 57.9412V26V7.55509C800 7.55509 679.274 13.7626 601.489 14.933C502.663 16.4201 446.878 15.3239 348.387 11.654C315.928 10.4445 289.541 8.01992 264.227 5.69401C227.845 2.35113 193.681 -0.787956 146.898 0.17713C88.586 1.38007 0 11.654 0 11.654Z" fill="#F2CC8F"/>
</svg>
